flaticon/arrows/circuit.svg

<svg xmlns="http://www.w3.org/2000/svg" width="32" height="32" viewBox="0 0 24 24">
    <path d="M14.035156 20.945312C14.015625 20.894531 13.984375 20.847656 13.949219 20.808594L11.464844 18.328125C11.304688 18.167969 11.042969 18.167969 10.878906 18.328125 10.71875 18.488281 10.71875 18.75 10.878906 18.914062L12.65625 20.691406 9.421875 20.691406C7.421875 20.691406 5.792969 19.0625 5.792969 17.058594L5.792969 5.761719C7.195312 5.558594 8.277344 4.351562 8.277344 2.898438 8.277344 1.300781 6.976562 0 5.378906 0 3.78125 0 2.484375 1.300781 2.484375 2.898438 2.484375 4.351562 3.5625 5.558594 4.964844 5.761719L4.964844 17.058594C4.964844 19.515625 6.964844 21.515625 9.421875 21.515625L12.65625 21.515625 10.878906 23.292969C10.71875 23.457031 10.71875 23.71875 10.878906 23.878906 10.960938 23.960938 11.066406 24 11.171875 24 11.277344 24 11.382812 23.960938 11.464844 23.878906L13.949219 21.394531C13.984375 21.359375 14.015625 21.3125 14.035156 21.261719 14.078125 21.160156 14.078125 21.046875 14.035156 20.945312zM3.308594 2.898438C3.308594 1.753906 4.238281.828125 5.378906.828125 6.519531.828125 7.449219 1.753906 7.449219 2.898438 7.449219 4.039062 6.519531 4.964844 5.378906 4.964844 4.238281 4.964844 3.308594 4.039062 3.308594 2.898438zM19.035156 18.238281L19.035156 6.941406C19.035156 4.484375 17.035156 2.484375 14.578125 2.484375L11.34375 2.484375 13.121094.707031C13.28125.542969 13.28125.28125 13.121094.121094 12.957031-.0390625 12.695312-.0390625 12.535156.121094L10.050781 2.605469C10.015625 2.640625 9.984375 2.6875 9.964844 2.738281 9.921875 2.839844 9.921875 2.953125 9.964844 3.054688 9.984375 3.105469 10.015625 3.152344 10.050781 3.191406L12.535156 5.671875C12.617188 5.753906 12.722656 5.792969 12.828125 5.792969 12.933594 5.792969 13.039062 5.753906 13.121094 5.671875 13.28125 5.511719 13.28125 5.25 13.121094 5.085938L11.34375 3.308594 14.578125 3.308594C16.578125 3.308594 18.207031 4.9375 18.207031 6.941406L18.207031 18.238281C16.804688 18.441406 15.722656 19.648438 15.722656 21.101562 15.722656 22.699219 17.023438 24 18.621094 24 20.21875 24 21.515625 22.699219 21.515625 21.101562 21.515625 19.648438 20.4375 18.441406 19.035156 18.238281zM18.621094 23.171875C17.480469 23.171875 16.550781 22.246094 16.550781 21.101562 16.550781 19.960938 17.480469 19.035156 18.621094 19.035156 19.761719 19.035156 20.691406 19.960938 20.691406 21.101562 20.691406 22.246094 19.761719 23.171875 18.621094 23.171875zM18.621094 23.171875"/>
</svg>

<svg xmlns="http://www.w3.org/2000/svg" width="32" height="32" viewBox="0 0 24 24">
    <path d="M14.035 20.945a.45.45 0 0 0-.086-.136l-2.484-2.48a.417.417 0 0 0-.586 0 .417.417 0 0 0 0 .585l1.777 1.777H9.422c-2 0-3.629-1.628-3.629-3.632V5.762a2.902 2.902 0 0 0 2.484-2.864C8.277 1.301 6.977 0 5.38 0a2.9 2.9 0 0 0-2.895 2.898 2.899 2.899 0 0 0 2.48 2.864v11.297c0 2.457 2 4.457 4.458 4.457h3.234l-1.777 1.777a.417.417 0 0 0 0 .586.41.41 0 0 0 .293.121.41.41 0 0 0 .293-.121l2.484-2.484a.39.39 0 0 0 .086-.133.404.404 0 0 0 0-.317zM3.31 2.898a2.071 2.071 0 0 1 4.14 0 2.07 2.07 0 0 1-4.14 0zm0 0M19.035 18.238V6.941c0-2.457-2-4.457-4.457-4.457h-3.234L13.12.707a.417.417 0 0 0 0-.586.417.417 0 0 0-.586 0l-2.484 2.484a.39.39 0 0 0-.086.133.404.404 0 0 0 0 .317c.02.05.05.097.086.136l2.484 2.48a.41.41 0 0 0 .293.122.41.41 0 0 0 .293-.121.417.417 0 0 0 0-.586l-1.777-1.777h3.234c2 0 3.629 1.628 3.629 3.632v11.297a2.902 2.902 0 0 0-2.484 2.864c0 1.597 1.3 2.898 2.898 2.898a2.9 2.9 0 0 0 2.895-2.898 2.899 2.899 0 0 0-2.48-2.864zm-.414 4.934c-1.14 0-2.07-.926-2.07-2.07a2.07 2.07 0 0 1 4.14 0c0 1.144-.93 2.07-2.07 2.07zm0 0"/>
</svg>
